!!!!SEGMENT: 008-1b-W-002-piano.krn
!!!COM: Chopin, Fryderyk
!!!OTL: Trio
!!!OPS: Op. 8
!!!PTL: FIRST GRAND TRIO. | for | PIANO FORTE, | Violin and Violoncello. | CONCERTANT.
!!!OMV: 2
!!!PPR: Wessel
!!!NIFC-rismID: BRAK
!!!NIFC-shelfmark: PL-Wbfc Wbfc F.7151 a, b.
!!!OMD: [half-note]=69.
**kern	**kern	**dynam
*part3	*part3	*part3
*	*I"SCHERZO.	*
*staff4	*staff3	*
*clefF4	*clefG2	*
*k[f#]	*k[f#]	*
*G:	*G:	*
*M3/4	*M3/4	*
*>[A,A1,A,A2,B,B1,B,B2,C,C,D,D,A,A1,A,A2,B,B1,B,B2]	*>[A,A1,A,A2,B,B1,B,B2,C,C,D,A,A1,A,A2,B,B1,B,B2]	*
*>A	*>A	*
*clefG2	*	*
!LO:TX:t=P:zmiana klucza z F4 na G2 przed 4gg:problem	!	!
!	!LO:TX:a:B:i:t=Con moto ma non troppo.	!
[4g	[4gg	f
=1	=1	=1
4g]	(>4gg]	.
4gg	4ggg`>)	.
(<4f#	(>4ff#	.
=2	=2	=2
!LO:TX:t=P:mixed beam:problem	!	!
8e/L)	(>8eeL)	.
8ee\	8eee)	.
(<8f#\	(>8ff#	.
8e\J	8eeJ	.
4d)	4dd)	.
=3	=3	=3
(<8cL	(>8ccL	.
8cc)	8ccc)	.
(<8c	(>8cc	.
8d	8dd	.
8B	8b	.
8cJ)	8ccJ)	.
!LO:TX:t=P:klucz F4 na kresce taktowej:problem	!	!
.	.	.
*clefF4	*	*
=4	=4	=4
*	*^	*
16qqB/	.	16qqb/	.
4A'>	2ryy	4a'<	.
4G'>	.	4g'<	.
*	*cue	*	*
!	!	!LO:TX:B:a:t=Viol&colon;	!
4r	4d	4r	.
=5	=5	=5	=5
!	!	!	!LO:DY:rj
8GGL<	(>4g/	8B<L	p
!	!LO:TX:b:B:i:t=legato.	!	!
.	.	.	.
8E	.	8G<	.
8C	4a/	8E<	.
8AA	.	8c<	.
8D	4b/	8F#<	.
8DDJ	.	8d<J	.
=6	=6	=6	=6
8GGL<	2g/	8B<L	.
8BB	.	8G<	.
8C	.	8A<	.
8D	.	8B<	.
8E	4a/)	8c<	.
8F#XJ	.	8d<J	.
!	!	!LO:TX:t=P:łuk kończy się na kresce taktowej:problem	!
.	.	.	.
*	*Xcue	*	*
*	*v	*v	*
!!LO:LB:g=original
=7	=7	=7
8GL	8BL	.
8A	8c	.
8B	8d	.
8d	8b	.
8c	8a	.
8eJ	8gJ	.
=8	=8	=8
!	!LO:TX:bi:B:t=poco	!
8dL	8f#L	.
8c	8a	.
!	!LO:TX:t=Cres _:problem:dynamics with extention lines 	!
!	!	!LO:HP:Bi:t=Cres.
8B	8dd	<
8d	8fn	.
8c	8e	.
8BJ	8bJ	.
=9	=9	=9
8AL	8ccL	.
8fn	8a	.
8d	8fn	.
8B	8b	.
8e	8g#X	.
8EJ	8eeJ	.
=10	=10	=10
!LO:TX:t=P:mixed beam:problem	!	!
8A/L	8ccL>	.
8c>\	8a	.
8d>\	8b	.
8e>\	8cc	.
8f#X>\	8dd	.
8g#X>\J	8eeJ	.
=11	=11	=11
8a>L	8ccL>	.
8b>	8dd	.
8cc>	8ee	.
8b>	8bb	.
8cc>	8aa	.
8cc#X>J	8eeJ	.
=12	=12	=12
8dd>\L	8ff#L>	.
8ee>\	8gg	.
8ff#>\	8aa	.
8gg>\	8ccc#X	.
8ff#>\	8ddd	.
8dd>\J	(>8ff#J	[[
*clefG2	*	*
=13	=13	=13
*	*^	*
!LO:TX:t=P:brak kreski taktowej na dolnej pięciolinii:problem	!	!	!
!	!	!	!LO:DY:rj
8ccL	8ddd	4ee)	f
8a	4cccn	.	.
8f#	.	8ee-XL	.
8g	8bbL	8dd	.
8e	8bb-X	8cc#X	.
8f#J	[8aaJ	(8ccnJ	.
!!LO:LB:g=original
=14	=14	=14	=14
8gL	8aa]	4b)	.
8e	4gg	.	.
8c#X	.	8b-XL	.
8d	8ff#XL	8a	.
8B	8ffn	8g#X	.
8c#J	[>8eeJ	8gnJ	.
!LO:TX:t=P:klucz F4 na kresce taktowej:problem	!	!	!
.	.	.	.
*clefF4	*	*	*
=15	=15	=15	=15
8dL	8ee]	4fn	.
8B-X	4dd	.	.
8G#X	.	4e	.
8A	8cc#XL	.	.
8F#	8ccn	8d#XL	.
8G#J	[>8bJ	8dnJ	.
=16	=16	=16	=16
8AL	8b]	4c	.
8Fn	4a	.	.
8D#X	.	4B	.
8E	8gL	.	.
8AA	8f#X	8e-XL 8c	.
8BBJ	8gJ	8dJ	.
=17	=17	=17	=17
2.C/	2en	2.g/ 2.c/ 2.G/	fz
.	4e-X	.	.
*	*v	*v	*
=18	=18	=18
2.GG/	2.g 2.d 2.B 2.G	.
=19	=19	=19
*	*^	*
!	!	!	!LO:DY:rj
(<8CT<L	(>2dd	2.g 2.e	p
.	.	.	<
8BB	.	.	.
8C	.	.	.
8D	.	.	.
8E	4cc)	.	.
8F#J)	.	.	[[
=20	=20	=20	=20
(8GL	(2cc	2.g 2.d	[
8A	.	.	.
8B	.	.	.
8c	.	.	.
8G	4b)	.	.
8DJ)	.	.	.
=21	=21	=21	=21
*	*	*^	*
!	!LO:S:s=1:note:problem:note-level slur	!	!	!
2GG	(>2b 2d	2d\	2.B/	.
4BB	4a	8d#XL	.	.
.	.	8f#J	.	.
!!LO:LB:g=original
=22	=22	=22	=22	=22
2E	4a	2.e/	2B^<\	.
.	2g	.	.	.
4C#X\	.	.	4A#X\	.
*	*	*v	*v	*
*	*v	*v	*
=23	=23	=23
4D	4d 4B)	.
4r	4r	.
!	!	!LO:HP:a
4D/ 4DD/	8eL 8c 8F#X	>
.	8dJ	]
=24	=24	=24
!!LO:TX:a:B:t=1|ma.
*>A1	*>A1	*
!	!	!LO:DY:rj
4GG/	4g 4B 4G	fz
4GGG/	4r	.
=25:|!	=25:|!	=25:|!
!!LO:TX:a:B:t=2|da.
*>A2	*>A2	*
4GG/	8gL 8B 8G	.
.	8d	.
4r	8g	.
.	8bJ	.
[4d	[4dd^<	f
=26!|:	=26!|:	=26!|:
*>B	*>B	*
(>4d]	(4dd]	.
*clefG2	*	*
4dd`>)	4ddd)	.
*clefF4	*	*
[4c	[>4cc	.
=27	=27	=27
8cL]	8cc/L>]	.
8B	8b	.
8AT	8aT<	.
8G#XJ	8g#XJ	.
(>4A	(4a^</	.
=28	=28	=28
8aL)	8aaL)	.
8A	8a	.
8Gn	8gn	.
8g	8gg	.
8G	8g	.
8AJ	8aJ	.
=29	=29	=29
4c`> 4A 4D	4f#`<	.
4B`> 4G 4E	4g`<	.
4r	4r	.
!!LO:LB:g=original
=30	=30	=30
!	!	!LO:DY:rj
4d`> 4B 4Fn	4gg#X`> 4g#X`>	f
4e-X`> 4c 4F#X	4aa`> 4a`>	.
4r	4r	.
=31	=31	=31
!	!	!LO:DY:rj
4en`> 4c#X`> 4F#`>	4aa#X 4a#X	p
4d#X`> 4B`>	(>8bbL 8b	.
.	8ff#	.
4r	8dd#X	.
.	8eeJ	.
=32	=32	=32
4e 4A#X 4F#	8ff#L	.
.	8gg#X	.
4e 4A# 4F#	8ff#	.
.	8ee	.
4e 4A# 4F#	8cc#X	.
.	8ff#J	.
=33	=33	=33
4d#X 4F#X 4BB	4b)	.
4BBB	4r	.
8BL	8d#XL	.
8eJ	8gnJ	.
=34	=34	=34
!LO:TX:a:B:i:t=legatiss|o.	!	!
8d#X>L	(>8f#L	p
8c>	8a	.
8d#>	8cc	.
8f#>	8dd#X	.
8g>	8ee	.
8e>J	8ggJ	.
=35	=35	=35
8f#>L	8aaL	.
8b>J	8dd#X	.
4d#X>\	8ff#	.
.	8b	.
8e>L	8gg	.
8g>J	8eeJ)	.
=36	=36	=36
4c	(<8aL	.
.	8e	.
4C/	8A	.
.	8e	.
(<4C/	8A#X	.
.	8eJ)	.
!!LO:LB:g=original
=37	=37	=37
4BB/	(>8GL	.
.	8B	.
4BBB/)	8F#X	.
.	8B	.
8BL	8d#X	.
8eJ	8gJ	.
=38	=38	=38
8d#X>L	8f#L>	<
8c>	8a	.
8d#>	8cc	[
.	.	.
8f#>	8dd#X	.
8g>	8ee	.
8e>J	8ggJ	.
=39	=39	=39
8d#X>L	8aaL>	.
8b>J	8dd#X	.
4d#X>\	8ff#X	.
.	8b	.
8e>L	8gg	.
8g>J	8eeJ)	.
=40	=40	=40
!	!LO:TX:t=P:mixed beam:problem	!
(4c\	8e/L>	.
.	8ee\	.
4C\)	8e/	.
.	8G</	.
4C^<\ 4CC\	8E</	.
.	[<8e/J	.
=41	=41	=41
*^	*	*
*	*	*^	*
8qBBB	.	.	.	.
4.F#\	4BB	8e]	4rAyy	.
.	.	4d#X	.	.
.	2FF#	.	2A#X<^>/	.
8EL<	.	(<8c#XL	.	.
8F#	.	8d#	.	.
8EJ	.	8c#J	.	.
=42	=42	=42	=42	=42
4D#\ 4BB\	4ryy	8g#X)	4B<	.
.	.	4f#	.	.
8C#XL<	2FF#	.	2A#X<^>/	.
8G#X	.	8eL	.	.
8F#	.	8d#X	.	.
8EJ	.	8c#XJ	.	.
*v	*v	*	*	*
*	*v	*v	*
=43	=43	=43
8D#XL	8BL	.
8BB	8F#	.
8D#	8B	<
8F#	8d#X	.
8B	8f#	.
8d#J	8bJ	[[
!!LO:PB:g=original
=44	=44	=44
8eL	8a#XL>	.
8F#	8f#	.
8A#X	8cc#X	.
*clefG2	*	*
8e	8a#	.
8g#X	8ee	.
8f#J	8dd#XJ	.
=45	=45	=45
*^	*	*
*	*	*^	*
4d#X/	2.B	4b/	4ryy	.
4gn	.	(>/8a#XL	2a#\	.
.	.	8ee	.	.
8f#L	.	8dd#X	.	.
8eJ	.	8cc#XJ	.	.
=46	=46	=46	=46	=46
8d#X/	2.B	8b/	4b\	.
8rg	.	4ff#/)	.	.
4g	.	.	2a#X\	.
.	.	(8eeL	.	.
!	!	!LO:TX:b:i:B:t=con delicatezza.	!	!
8f#L	.	8dd#X	.	.
8eJ	.	8cc#XJ)	.	.
*v	*v	*	*	*
*	*v	*v	*
=47	=47	=47
8d#XL 8B	8b\L<	.
8B	8f#	.
8d#	8b	.
8f#	8dd#X	.
8b	8ff#	.
8dd#yJ	8bbJ	.
=48	=48	=48
8eeL	(8aa#XL	.
8f#	8ff#	.
8a#X	8ccc#X	.
8ee	8aa#	.
8gg#X	8eee	.
8ff#J	8ddd#XJ	.
=49	=49	=49
*^	*	*
4raayy	4dd#X 4b	4bb)	.
8cc#XL	2f#	(8aa#X^<L	.
8ee	.	8ccc#X	.
8gg#X	.	8eee	.
8ff#J	.	8ddd#XJ)	.
!!LO:LB:g=original
=50	=50	=50	=50
8dd#XL	4b	8bb^<L	.
8ff#J	.	8ddd#X	.
8cc#XL	2f#	(8aa#X^<	.
8ee	.	8ccc#X	.
8gg#X	.	8eee	.
8ff#J	.	8ddd#J	.
=51	=51	=51	=51
4rggyy	4dd#X\ 4b\	4bb)	.
8cc#XL	2f#	(8aa#X^<L	.
8ee	.	8ccc#X	.
8ggn	.	8eee	.
8ff#J	.	8ddd#XJ)	.
=52	=52	=52	=52
4rbbyy	4dd#X\ 4b\	(8bbL	.
.	.	8ddd#X)	.
8cc#XL	2f#	(8aa#X^<	.
8ee	.	8ccc#X	.
8gg	.	8eee	.
8ff#J	.	8dddnJ	.
*v	*v	*	*
=53	=53	=53
4dd 4b	8bbL	.
.	8ddd)	.
(>8cc#XL	(8aa#X	.
8ddJ)	8bb)	.
(>8cc#L	(8aa#	.
8ddJ)	8bbJ)	.
=54	=54	=54
8b/L	8dd#XL	.
8cc`<J	8aa`>J 8ee`>	.
8a#X/L	8cc#XL	.
8b`<J	8gg`>J 8ddn`>	.
8g#X/L	8bL	.
8an`<J	8ff#`>J 8ccn`>	.
=55	=55	=55
8f#XL	8a#XL>	.
8g`<J	8ee`<J 8b`<	.
8e#XL	8g#XL	.
8f#`<J	8dd`<J 8an`<	.
8d#XL	8f#L	.
8en`<J	8cc`<J 8gn`<	.
*clefF4	*	*
!!LO:LB:g=original
=56	=56	=56
8c#XL	8e#XL	.
8dJ	8bJ 8f#	.
8BL	8d#XL	.
8cnJ	8aJ 8eny	.
8A#XL	8c#XL	.
8BJ	8gJ 8dn	.
=57	=57	=57
4A 4D	4f# 4cn	.
8F#XL	(>8dL 8A	.
8GJ	8e-XJ 8c	.
8F#L	8dL 8A	.
8GJ	8e-J 8c	.
=58	=58	=58
8G#XL	8d^<L 8B	.
8AJ	8f#XJ 8c)	.
8F#L	(>8dL 8A	.
8GnJ	8e-XJ 8c	.
8F#L	8dL 8A	.
8GJ	8e-J 8c	.
=59	=59	=59
8G#XL	8d^L 8B	.
8AJ	8f#XJ 8c)	.
8F#L	(>8dL 8A	.
8GnJ	8e-XJ 8c	.
8F#L	8dL 8A	.
8GJ	8e-J 8c	.
=60	=60	=60
*	*^	*
8G#XL	2ryy	8d^<L 8B	.
8AJ	.	8f#XJ 8c	.
!	!	!LO:S:s=1:note:problem:note-level slur	!
8F#L	.	8dL 8A)	.
8D	.	8eJ 8c	.
*	*cue	*	*
!	!	!LO:TX:B:a:t=Viol.	!
8E	4dd/	8d/L 8A/	.
8F#J	.	8cJ	.
=61	=61	=61	=61
!	!LO:TX:i:B:b:t=legato.	!	!
!	!	!	!LO:DY:rj
8GL<	(>4g/	8B<L	p
8E	.	8G<	.
8C	4a/	8E<	.
8AA	.	8c<	.
8D	4b/	8F#<	.
8DDJ	.	8d<J	.
!!LO:LB:g=original
=62	=62	=62	=62
8GGL<	2g/	8B<L	.
8BB	.	8G<	.
8C	.	8A<	.
8D	.	8B<	.
8E	4a/)	8c<	.
8F#XJ	.	8d<J	.
*	*Xcue	*	*
*	*v	*v	*
=63	=63	=63
8GL	8BL	.
8A	8c	.
8B	8d	.
8d	8b	.
8c	8a	.
8eJ	8gJ	.
=64	=64	=64
8dL	8f#L	.
!	!LO:TX:bi:B:t=poco	!
8c	8a	.
8B	8dd	.
!	!LO:TX:t=Cres _:problem:dynamics with extention lines 	!
!	!	!LO:HP:Bi:t=Cres.
8d	8fn	<
8c	8e	.
8BJ	8bJ	.
=65	=65	=65
8AL	8ccL	.
8fn	8a	.
8d	8fn	.
8B	8b	.
8e	8g#X	.
8EJ	8eeJ	.
=66	=66	=66
!LO:TX:t=P:mixed beam:problem	!	!
8A/L	8ccL>	.
8c>\	8a	.
8d>\	8b	.
8e>\	8cc	.
8f#X>\	8dd	.
8g#X>\J	8eeJ	.
=67	=67	=67
8a>L	8ccL>	.
8b>	8dd	.
8cc>	8ee	.
8b>	8bb	.
8cc>	8aa	.
8cc#X>J	8eeJ	.
!!LO:LB:g=original
=68	=68	=68
8dd>L	8ff#L>	.
8ee>	8gg	.
8ff#>	8aa	.
8gg>	8ccc#X	.
8ff#>	8ddd	.
8dd>J	(<(>8ff#J	[
*clefG2	*	*
=69	=69	=69
*	*^	*
!	!	!	!LO:DY:rj
!	!LO:TX:b:i:B:t=sempre legato.	!	!
8cc/L	8ddd	4ee))	f
8a	4ccc	.	.
8f#	.	8ee-XL	.
8g	8bbL	8dd	.
8e	8bb-X	8cc#X	.
8f#J	[8aaJ	(<8ccnJ	.
=70	=70	=70	=70
8gL	8aa]	4b)	.
8e	4gg	.	.
8c#X	.	8b-XL	.
8d	8ff#XL	8a	.
8B	8ffn	8g#X	.
8c#J	[>8eeJ	8gnJ	.
*clefF4	*	*	*
=71	=71	=71	=71
8dL	8ee]	4fn	.
8B-X	4dd	.	.
8G#X	.	4e	.
8A	8cc#XL	.	.
8F#	8ccn	8d#XL	.
8G#J	[8bJ	8dnJ	.
=72	=72	=72	=72
8AL	8b]	4c	.
8Fn	4a	.	.
8D#X	.	4B	.
8E	8gL	.	.
8AA	8f#X	8e-XL 8c	.
8BBJ	8gJ	8dJ	.
=73	=73	=73	=73
!	!	!	!LO:DY:rj
2.C/	2en/	2.g/ 2.c/ 2.G/	fz
.	4e-X/	.	.
*	*v	*v	*
!!LO:LB:g=original
=74	=74	=74
2.GG/	2.g 2.d 2.B 2.G	.
=75	=75	=75
*	*^	*
(8CTL<	(>2dd	2.g 2.e	p
!	!	!	!LO:HP:b=2
.	.	.	<
8BB	.	.	.
8C	.	.	.
8D	.	.	.
8E	4cc)	.	.
8F#J	.	.	[
=76	=76	=76	=76
8GL	(>2cc	2.g 2.d	[
8A	.	.	.
8c	.	.	.
8B	.	.	.
8G	4b)	.	.
8DJ)	.	.	.
=77	=77	=77	=77
*	*	*^	*
2GG	(>2b	2d/	2.B\	.
4BB	4a	8d#XL	.	.
.	.	8f#J	.	.
=78	=78	=78	=78	=78
2E	4a	2.e/	2B^<\	.
.	2g	.	.	.
4C#X/	.	.	4A#X\	.
*	*	*v	*v	*
*	*v	*v	*
=79	=79	=79
4D/	4d) 4B	.
4r	4r	.
4D/ 4DD/	8e^<L 8c 8F#X	.
.	8dJ	.
=80	=80	=80
!!LO:TX:a:B:t=1|ma.
*>B1	*>B1	*
4GG/	8gL 8B 8G	.
.	(8d	.
4r	8g	.
.	8bJ)	.
4d	4dd^<\	.
=81:|!	=81:|!	=81:|!
!!LO:TX:a:B:t=2|da.
*>B2	*>B2	*
4GG	4g	.
!	!LO:TX:t=P:metrum 3/4 na nowej stronie, brak kasownika na końcu tego systemu:problem	!
4GGG	4r	.
!LO:TX:b:a:i:t=Fine	!	!
.	.	.
!!LO:PB:g=original
==	==	==
*>C	*>C	*
*M3/4	*M3/4	*
*k[]	*k[]	*
*I"TRIO.	*	*
*	*^	*
*	*cue	*	*
!	!	!LO:TX:B:a:t=TRIO.:problem:TRIO z lewej strony akolady	!
4r	8aaL	4r	.
.	8ggJ	.	.
=82	=82	=82	=82
*	*	*^	*
*^	*	*	*	*
!	!	!	!	!	!LO:DY:rj
!	!	!	!LO:TX:i:B:t=sotto voce.	!	!
(<4B<	2.GG\	4ff/	2.f/ 2.d/	2.ryy	p
4A<	.	8gg/L	.	.	.
.	.	8ff	.	.	.
4G<)	.	8ee	.	.	.
.	.	8ffJ	.	.	.
=83	=83	=83	=83	=83	=83
*	*	*	*	*^	*
2G/	2.C\ 2.CC\	4ee	4e/	4.rFyy	2.c	.
.	.	8ggL	8e/L	.	.	.
.	.	8cccJ	8eJ	4.e\	.	.
4ryy	.	4eee	4G<	.	.	.
*	*	*Xcue	*	*	*	*
*	*	*	*	*v	*v	*
*	*	*	*v	*v	*
*	*	*v	*v	*
*v	*v	*	*
=84	=84	=84
2GG\	2f 2d 2G<	.
4GG\	4f 4d 4G<	.
=85	=85	=85
2C\	2e 2c 2G<	.
4r	4g	.
=86	=86	=86
*	*^	*
!	!LO:TX:B:i:t=Dolce.	!	!
4r	8.gL	2g	.
.	16eeJk	.	.
4r	4ee	.	.
4G	4dd	4g 4f	.
=87	=87	=87	=87
*^	*	*	*
8.GL	2.G	2cc 2g	8e	.
.	.	.	8rcyy	.
16eJk	.	.	.	.
4e	.	.	2rcyy	.
4d	.	[>4b 4f	.	.
=88	=88	=88	=88	=88
2c	2.G	8.bL]	2e	.
.	.	16aJk	.	.
.	.	4a	.	.
4B/	.	4g 4d	4rByy	.
*v	*v	*	*	*
*	*v	*v	*
=89	=89	=89
!	!	!LO:DY:rj
4A 4D	4f#X`< 4d 4c	f
4D/ 4GG/	4g`< 4d 4B	.
4r	4r	.
!!LO:LB:g=original
=90	=90	=90
*^	*	*
*	*	*^	*
!	!	!	!	!LO:DY:rj
4A/	4D	4a	2fn 2d	p
8.A/L	4DD\	8.aL	.	.
16AJ	.	16aJk	.	.
4A/	4FF\	4a	4rDyy	.
*	*	*v	*v	*
*v	*v	*	*
=91	=91	=91
*^	*	*
2.A/	2.AA\ 2.AAA\	2.a^< 2.e 2.c	.
*v	*v	*	*
=92	=92	=92
*	*^	*
*	*	*^	*
2.D/ 2.DD/	2a	4f#X\	2c	.
.	.	8.f#L	.	.
.	.	16f#Jk	.	.
.	4rggyy	4f#\	4ryy	.
=93	=93	=93	=93	=93
2.GG/	2a^>/	2.fn\	4c\	.
.	.	.	2B\	.
.	4g	.	.	.
*	*	*v	*v	*
*	*v	*v	*
=94	=94	=94
[<2.C/ [2.CC/	(>2e 2c 2G	.
.	4f 4B 4G	.
=95	=95	=95
2.C/] 2.CC/]	2e 2c 2G	.
.	4d#X 4c 4A	.
=96	=96	=96
[<2.C/ [2.CC/	2e 2c 2G	.
.	4f 4B 4G	.
=97	=97	=97
4C/] 4CC/]	4e 4c 4G)	.
4CC/	4r	.
=:|!|:	=:|!|:	=:|!|:
*>D	*>D	*
(8EL	(8eL	f
8FJ	8fJ	.
=98	=98	=98
4.G)	4.g)	.
(<8B-XL	(>8b-XL	.
8A	8a	.
8B-J	8b-J	.
=99	=99	=99
8GL>	8gL	.
8E	8e	.
8C#X	8c#X	.
8BB-X	8B-X	.
8GG	8G	.
8AAJ	8AJ	.
!!LO:LB:g=original
=100	=100	=100
!	!LO:TX:t=P:łuk kończy się pod nutą:problem	!
4BB-X/)	4B-X/)	.
8r	8r	.
(8B-L	(8b-XL	.
8A	8a	.
8B-yJ	8b-J	.
=101	=101	=101
4G)	4g)	.
!	!	!LO:DY:rj
4e'> 4E'>	4cc#X 4b-X 4g	f<
4d'> 4D'>	4dd/ 4b-/ 4g/	[
=102	=102	=102
4c#X 4C#X	4ee/ 4b-X/ 4g/	.
8r	8r	[
*clefG2	*	*
(8b-XL>	(8bb-XL	.
8a	8aa	.
8b-J	8bb-J	.
=103	=103	=103
!LO:TX:t=P:mixed beam:problem	!	!
8g/L	8ggL	.
8e/	8ee	.
8c#X/	8cc#X	.
*clefF4	*	*
8B-X\	8b-X	.
8G\	8g	.
8A\J	8aJ	.
=104	=104	=104
8B-XL	8b-XL	.
8G	8g	.
8E	8e	.
8C#X	8c#X	.
8GG	8G	.
8AAJ	8AJ	.
=105	=105	=105
4BB-X/)	4B-X/)	.
4rGG	4r	.
!	!	!LO:DY:rj
4Cn\ (<4CCn\	(>4A#X<^^> 4E<^^>	f
=106	=106	=106
4BB\ 4BBB\)	4Bn< 4D#X<)	.
8r	8r	.
(>8cL	(>8ccL	.
8B	8b	.
8cJ	8ccJ	.
=107	=107	=107
8AL	8aL	.
8F#X	8f#X	.
8D#X	8d#X	.
8C	8c	.
8AA	8A	.
8BBJ	8BJ	.
!!LO:LB:g=original
=108	=108	=108
!LO:TX:t=P:łuk kończy się pod nutą:problem	!LO:TX:t=P:łuk kończy się pod nutą:problem	!
4C/)	4c)	.
8r	8r	.
(8cL	(8ccL	.
8B	8b	.
8cJ	8ccJ	.
=109	=109	=109
4A)	4a/)	.
!	!	!LO:DY:rj
4c'>\ 4C'>\	4dd#X'< 4a'< 4f#X'<	f
.	.	<
4c'>\ 4C'>\	4ee'< 4a'< 4e'.	.
=110	=110	=110
4B'>\ 4BB'>\	4ff#X'< 4a'< 4d#X'<	[
8r	8r	.
*clefG2	*	*
(>/8ccL	(8cccL	.
8b	8bb	.
8ccJ	8cccJ	.
=111	=111	=111
8a/L	8aaL	.
8f#X	8ff#X	.
8d#X	8dd#X	.
8c	8cc	.
8A	8a	.
8BJ	8bJ	.
*clefF4	*	*
=112	=112	=112
8cL	8ccL	.
8A	8a	.
8F#X	8f#X	.
8D#X	8d#X	.
8AA	8A	.
8BBJ	8BJ	.
=113	=113	=113
4C/)	4c)	.
4r	4r	.
!	!	!LO:DY:rj
4BB/	4f#X 4d#X 4B 4A	f
=114	=114	=114
4.BB/	4g 4e 4B 4G	.
.	8b^^>L 8g^^> 8e^^>	p
(<8BBB/L	8BJ	.
8CC#X/	8b^^>L 8f^^> 8d#	.
8DD#X/J	8AJ	.
=115	=115	=115
4.EE/)	(<8eL 8G	.
.	8B	.
.	8e	.
(8EL	8gJ)	.
8D	4ee	<
8CJ	.	[[
!!LO:LB:g=original
=116	=116	=116
!LO:TX:t=P:łuk kończy się pod nutą:problem	!	!
4.BB/)	4b\	.
.	8bb^^>L 8gg^^> 8ee^^>	.
(8BBBL	8bJ	.
8CC#X	8bb^^>L 8ff#X^^> 8dd#	.
8DD#XJ	8aJ	.
=117	=117	=117
4EE)	8eeL 8g	.
.	(>8b	.
4r	8ee	.
.	8ggJ	.
(8EEL	4eee)	.
8FFJ)	.	.
=118	=118	=118
*	*ped	*
!	!LO:TX:t=P:fz nad pedałem:problem	!
2GG 2GGG	2ggg 2fff 2ddd 2bb 2gg 2ff	fz
4r	4r	.
=119	=119	=119
4d 4G	4b 4g 4f	fz
4ff> 4dd> 4g>	4bb/ 4gg/	fz
*	*8va	*
4ff> 4dd> 4g>	4bbb/ 4ggg/	fz
*	*X8va	*
=120	=120	=120
*	*^	*
!	!	!LO:TX:a:B:i:t=poco Rall|o.	!
*	*cue	*	*
[<2.GG/ [2.GGG/	8ddL	[</2.f [</2.d [</2.B [</2.G	.
.	8xcc#	.	.
.	8ee	.	.
.	8dd	.	.
.	8b	.	.
.	8aJ	.	.
*	*Xcue	*	*
*	*v	*v	*
=121	=121	=121
2.GG/] 2.GGG/]	2.f] 2.d] 2.B] 2.G]	.
*	*Xped	*
.	.	.
=122	=122	=122
*	*^	*
!	!	!LO:TX:a:B:i:t=A Tempo.	!
2.GG\	2.f 2.d	4B</	.
.	.	4A</	.
.	.	4G</	.
=123	=123	=123	=123
*^	*	*^	*
2G/	2.C\ 2.CC\	4e	4.rFyy	2.c	.
.	.	8eL	.	.	.
.	.	8eJ	4.e\	.	.
4ryy	.	4G<	.	.	.
*v	*v	*	*	*	*
*	*	*v	*v	*
*	*v	*v	*
=124	=124	=124
2GG\	(>2f 2d 2B< 2G<	.
4GG\	4f 4d 4G<	.
=125	=125	=125
2C\	2e 2c 2G<)	.
!	!LO:TX:b:B:i:t=Dolce.	!
4r	4g	.
=126	=126	=126
*	*^	*
4r	8.gL	2g	.
.	16eeJk	.	.
4r	4ee	.	.
4G	4dd	4g 4f	.
!!LO:LB:g=original
=127	=127	=127	=127
*^	*	*	*
8.GL	2.G	2cc 2g	8e	.
.	.	.	8rdyy	.
16eJk	.	.	.	.
4e	.	.	2reyy	.
4d	.	[>4b 4f	.	.
=128	=128	=128	=128	=128
2c	2.G	8.bL]	2e	.
.	.	16aJk	.	.
.	.	4a	.	.
4B	.	4g 4d	4rByy	.
*v	*v	*	*	*
*	*v	*v	*
=129	=129	=129
4A 4D	4f#X 4d 4c	.
4D/ 4GG/	4g 4d 4B	.
4r	4r	.
=130	=130	=130
*^	*	*
*	*	*^	*
!	!	!	!	!LO:DY:rj
4A/	4D	4a	2fn 2d	p
8.A/L	4DD\	8.aL	.	.
16AJ	.	16aJk	.	.
4A/	4FF\	4a	4rDyy	.
*	*	*v	*v	*
*v	*v	*	*
=131	=131	=131
*^	*	*
2.A	2.AA\ 2.AAA\	2.a 2.e 2.c	<
.	.	.	[
*v	*v	*	*
=132	=132	=132
*	*^	*
*	*	*^	*
2.D/ 2.DD/	2a	4f#X\	2c	.
.	.	8.f#L	.	.
.	.	16f#Jk	.	.
.	4raayy	4f#\	4ryy	.
*	*	*v	*v	*
=133	=133	=133	=133
*	*^	*	*
2.GG/	2a^>/	2fn\	4c\	.
.	.	.	2B\	.
.	(>4g	4ryy	.	.
*	*v	*v	*	*
*	*v	*v	*
=134	=134	=134
[<2.C/ [2.CC/	2e 2c 2G	.
.	4f 4B 4G	.
=135	=135	=135
!LO:TX:b:B:i:t=D.C. Scherzo al Fine.	!	!
2.C/] 2.CC/]	2e 2c 2G	.
.	4d#X 4c 4A	.
=136	=136	=136
[<2.C/ [2.CC/	2en 2c 2G	.
.	4f 4B 4G	.
=137	=137	=137
4C/] 4CC/]	4e 4c 4G)	.
4CC/	4r	.
=:|!	=:|!	=:|!
*-	*-	*-
!!!system-decoration: s1,s2{(s3,s4)}
!!title: @{OTL}; @{OPS} @{ONM} publisher: @{PPR}
!!!RDF**kern: > = above
!!!RDF**kern: < = below
!!!RDF**kern: N = linked
!!!RDF**dynam: > = "dim."
!!!RDF**dynam: < = "Cres", fontstyle="italic"
!!!RDF**kern: i = editorial accidental
!!!ENC: Mateusz Mrugas
!!!END: 2019-10-27
!!!EED: Jędrzej Mróz
!!!EST: revision finished 2019-10-28
!!!rism-genre: Trio
!!!rism-key: G minor
!!!rism-opus: op. 8
!!!rism-title: Trio in G minor op. 8
!!!rism-permalink: https://opac.rism.info/search?id=300605222&View=rism
